X: 7562
T: Cock's Pecked The Putty Out, The
R: jig
M: 6/8
K: Eminor
|:EFG FBB|ABc B2 e|gee fdf|eBe AFG|
EFG FBB|ABc BE^c|dBB eBe|AFA B3:|
|:eBB eBB|ed^c A2 B|gfe c2d|cBA B3|
EFG ABA|EGG B2 =c|dBB eBe|AFA B3:|

